assets/sonr-icons/inbox.svg

<svg xmlns="http://www.w3.org/2000/svg" width="24" height="24" fill="none" viewBox="0 0 24 24"><path stroke="#000" stroke-linecap="round" stroke-linejoin="round" stroke-width="2" d="M3 12H7.5C8.12951 12 8.72229 12.2964 9.1 12.8L9.4 13.2C9.77771 13.7036 10.3705 14 11 14H13C13.6295 14 14.2223 13.7036 14.6 13.2L14.9 12.8C15.2777 12.2964 15.8705 12 16.5 12H21M21.7365 11.5389L18.5758 6.00772C18.2198 5.38457 17.5571 5 16.8394 5H7.16065C6.44293 5 5.78024 5.38457 5.42416 6.00772L2.26351 11.5389C2.09083 11.841 2 12.1831 2 12.5311V17C2 18.1046 2.89543 19 4 19H20C21.1046 19 22 18.1046 22 17V12.5311C22 12.1831 21.9092 11.841 21.7365 11.5389Z"/></svg>

<svg xmlns="http://www.w3.org/2000/svg" width="24" height="24" fill="none"><path stroke="#000" stroke-linecap="round" stroke-linejoin="round" stroke-width="2" d="M3 12h4.5a2 2 0 0 1 1.6.8l.3.4a2 2 0 0 0 1.6.8h2a2 2 0 0 0 1.6-.8l.3-.4a2 2 0 0 1 1.6-.8H21m.736-.461-3.16-5.531A2 2 0 0 0 16.839 5H7.161a2 2 0 0 0-1.737 1.008l-3.16 5.53a2 2 0 0 0-.264.993V17a2 2 0 0 0 2 2h16a2 2 0 0 0 2-2v-4.469a2 2 0 0 0-.264-.992"/></svg>
